X: 100156
M: C|
L: 1/8
K: A
u((3EFG) |\
|: u(cd) |\
ecea ecea | fdfa fdfa | fedc dcBA | GABc [B2G2](cd) |\
ecea ecea | fdfa fdfa | fedc dcBA | E2G2 A2 :|


